hosted_logos/afi.ai.svg

<svg width="320" height="277" viewBox="0 0 320 277" fill="none" xmlns="http://www.w3.org/2000/svg"><path d="m115.286 118.962 28.369 20.054-64.14 48.004-61.69-138.703 37.878 27.585.01.008.011.008 59.5 43 .031.022.031.022Z" stroke="#4A4E52" stroke-width="14.6" fill="transparent"/><path d="m122.031 103.749 34.634-83.999 66.481 156.451-83.097-59.71-.022-.016-.023-.016-17.973-12.71Z" stroke="#259D9E" stroke-width="14.6" fill="transparent"/><path d="m301.187 49.705-43.235 93.545-16.554 34.87-27.826-64.82 87.615-63.595Z" stroke="#4A4E52" stroke-width="14.6" fill="transparent"/><path d="M90.911 228.623h10.919v46.693H90.911v-4.882c-4.493 4.155-9.308 6.214-14.446 6.214-6.498 0-11.886-2.326-16.128-6.995C56.112 264.913 54 258.947 54 251.81c0-6.995 2.112-12.836 6.337-17.505 4.224-4.687 9.505-6.995 15.842-6.995 5.477 0 10.4 2.219 14.75 6.711v-5.398h-.018Zm-25.813 23.169c0 4.492 1.218 8.114 3.634 10.937 2.47 2.84 5.603 4.261 9.362 4.261 4.028 0 7.286-1.367 9.774-4.119 2.47-2.841 3.723-6.445 3.723-10.83s-1.253-7.989-3.723-10.83c-2.47-2.787-5.71-4.154-9.666-4.154-3.724 0-6.856 1.402-9.362 4.225-2.524 2.823-3.742 6.356-3.742 10.51Zm56.853 23.488v-41.562h-9.201v-8.38h9.201v-6.125c0-11.558 5.316-18.322 17.363-18.322 2.471 0 4.69.159 6.069.55v8.646c-1.218-.266-2.972-.355-4.153-.355-6.373 0-8.181 2.61-8.181 9.889v5.752h11.421v8.38h-11.421v41.562h-11.08v-.035h-.018Zm39.077-67.872c0-.746.126-1.474.43-2.166a5.415 5.415 0 0 1 1.217-1.776 5.791 5.791 0 0 1 1.79-1.207c.662-.302 1.378-.426 2.184-.426.788 0 1.486.124 2.184.426a5.486 5.486 0 0 1 1.79 1.207 5.722 5.722 0 0 1 1.217 1.776c.304.657.43 1.367.43 2.166 0 .799-.126 1.473-.43 2.166a5.421 5.421 0 0 1-1.217 1.775 5.774 5.774 0 0 1-1.79 1.207c-.662.302-1.378.427-2.184.427-.788 0-1.486-.125-2.184-.427a5.455 5.455 0 0 1-1.79-1.207 5.717 5.717 0 0 1-1.217-1.775c-.304-.657-.43-1.403-.43-2.166Zm.752 20.648 6.892-2.788h2.846v50.013h-9.774v-47.225h.036Z" fill="#4A4E52" stroke="#232425" stroke-width=".256" stroke-miterlimit="10"/><path d="M233.581 226.79H244.5v46.693h-10.919v-4.882c-4.494 4.155-9.309 6.214-14.446 6.214-6.498 0-11.886-2.326-16.129-6.995-4.224-4.74-6.336-10.706-6.336-17.843 0-6.995 2.112-12.836 6.336-17.505 4.225-4.687 9.506-6.995 15.842-6.995 5.478 0 10.401 2.219 14.75 6.711v-5.398h-.017Zm-25.813 23.169c0 4.492 1.217 8.114 3.634 10.937 2.47 2.84 5.603 4.261 9.362 4.261 4.027 0 7.285-1.367 9.773-4.119 2.471-2.841 3.724-6.445 3.724-10.83s-1.253-7.989-3.724-10.83c-2.47-2.787-5.71-4.154-9.666-4.154-3.723 0-6.856 1.402-9.362 4.225-2.524 2.823-3.741 6.356-3.741 10.51Zm47.127-44.384c0-.746.125-1.474.429-2.166.305-.693.698-1.279 1.218-1.776a5.78 5.78 0 0 1 1.79-1.207c.662-.302 1.378-.426 2.184-.426.787 0 1.485.124 2.183.426a5.476 5.476 0 0 1 1.79 1.207c.52.515.931 1.119 1.218 1.776.304.657.429 1.367.429 2.166 0 .799-.125 1.473-.429 2.166-.305.692-.698 1.278-1.218 1.775a5.762 5.762 0 0 1-1.79 1.207c-.662.302-1.378.427-2.183.427-.788 0-1.486-.125-2.184-.427a5.455 5.455 0 0 1-1.79-1.207 5.72 5.72 0 0 1-1.218-1.775c-.304-.657-.429-1.403-.429-2.166Zm.752 20.648 6.891-2.788h2.846v50.013h-9.773v-47.225h.036Z" fill="#259D9E"/><circle cx="185.994" cy="271.679" r="4.575" fill="#259D9E"/></svg>

<svg width="320" height="277" viewBox="0 0 320 277" fill="none" xmlns="http://www.w3.org/2000/svg">
<path d="M115.286 118.962L143.655 139.016L79.5145 187.02L17.8242 48.3171L55.7029 75.9022L55.7136 75.91L55.7244 75.9178L115.224 118.918L115.255 118.94L115.286 118.962Z" stroke="#4A4E52" stroke-width="14.6"/>
<path d="M122.031 103.749L156.665 19.7504L223.146 176.201L140.049 116.491L140.027 116.475L140.004 116.459L122.031 103.749Z" stroke="#259D9E" stroke-width="14.6"/>
<path d="M301.187 49.7049L257.952 143.25L241.398 178.12L213.572 113.3L301.187 49.7049Z" stroke="#4A4E52" stroke-width="14.6"/>
<path d="M90.911 228.623H101.83V275.316H90.911V270.434C86.4179 274.589 81.6027 276.648 76.4652 276.648C69.9673 276.648 64.5792 274.322 60.3368 269.653C56.1123 264.913 54 258.947 54 251.81C54 244.815 56.1123 238.974 60.3368 234.305C64.5613 229.618 69.842 227.31 76.1788 227.31C81.6564 227.31 86.579 229.529 90.9289 234.021V228.623H90.911ZM65.0984 251.792C65.0984 256.284 66.3156 259.906 68.7322 262.729C71.2024 265.569 74.335 266.99 78.0942 266.99C82.1218 266.99 85.3797 265.623 87.8679 262.871C90.3382 260.03 91.5912 256.426 91.5912 252.041C91.5912 247.656 90.3382 244.052 87.8679 241.211C85.3976 238.424 82.1576 237.057 78.2016 237.057C74.4783 237.057 71.3457 238.459 68.8396 241.282C66.3156 244.105 65.0984 247.638 65.0984 251.792Z" fill="#4A4E52" stroke="#232425" stroke-width="0.256177" stroke-miterlimit="10"/>
<path d="M121.951 275.28V233.718H112.75V225.338H121.951V219.213C121.951 207.655 127.267 200.891 139.314 200.891C141.785 200.891 144.004 201.05 145.383 201.441V210.087C144.165 209.821 142.411 209.732 141.23 209.732C134.857 209.732 133.049 212.342 133.049 219.621V225.373H144.47V233.753H133.049V275.315H121.969V275.28H121.951Z" fill="#4A4E52" stroke="#232425" stroke-width="0.256177" stroke-miterlimit="10"/>
<path d="M161.028 207.408C161.028 206.662 161.154 205.934 161.458 205.242C161.762 204.549 162.156 203.963 162.675 203.466C163.194 202.952 163.803 202.543 164.465 202.259C165.127 201.957 165.843 201.833 166.649 201.833C167.437 201.833 168.135 201.957 168.833 202.259C169.531 202.561 170.122 202.952 170.623 203.466C171.142 203.981 171.554 204.585 171.84 205.242C172.144 205.899 172.27 206.609 172.27 207.408C172.27 208.207 172.144 208.881 171.84 209.574C171.536 210.266 171.142 210.852 170.623 211.349C170.104 211.864 169.495 212.272 168.833 212.556C168.171 212.858 167.455 212.983 166.649 212.983C165.861 212.983 165.163 212.858 164.465 212.556C163.767 212.255 163.176 211.864 162.675 211.349C162.156 210.834 161.744 210.231 161.458 209.574C161.154 208.917 161.028 208.171 161.028 207.408ZM161.78 228.056L168.672 225.268H171.518V275.281H161.744V228.056H161.78Z" fill="#4A4E52" stroke="#232425" stroke-width="0.256177" stroke-miterlimit="10"/>
<path d="M233.581 226.79H244.5V273.483H233.581V268.601C229.087 272.756 224.272 274.815 219.135 274.815C212.637 274.815 207.249 272.489 203.006 267.82C198.782 263.08 196.67 257.114 196.67 249.977C196.67 242.982 198.782 237.141 203.006 232.472C207.231 227.785 212.512 225.477 218.848 225.477C224.326 225.477 229.249 227.696 233.598 232.188V226.79H233.581ZM207.768 249.959C207.768 254.451 208.985 258.073 211.402 260.896C213.872 263.736 217.005 265.157 220.764 265.157C224.791 265.157 228.049 263.79 230.537 261.038C233.008 258.197 234.261 254.593 234.261 250.208C234.261 245.823 233.008 242.219 230.537 239.378C228.067 236.591 224.827 235.224 220.871 235.224C217.148 235.224 214.015 236.626 211.509 239.449C208.985 242.272 207.768 245.805 207.768 249.959Z" fill="#259D9E"/>
<path d="M254.895 205.575C254.895 204.829 255.02 204.101 255.324 203.409C255.629 202.716 256.022 202.13 256.542 201.633C257.061 201.119 257.669 200.71 258.332 200.426C258.994 200.124 259.71 200 260.516 200C261.303 200 262.001 200.124 262.699 200.426C263.398 200.728 263.988 201.119 264.489 201.633C265.009 202.148 265.42 202.752 265.707 203.409C266.011 204.066 266.136 204.776 266.136 205.575C266.136 206.374 266.011 207.048 265.707 207.741C265.402 208.433 265.009 209.019 264.489 209.516C263.97 210.031 263.362 210.439 262.699 210.723C262.037 211.025 261.321 211.15 260.516 211.15C259.728 211.15 259.03 211.025 258.332 210.723C257.634 210.422 257.043 210.031 256.542 209.516C256.022 209.001 255.611 208.398 255.324 207.741C255.02 207.084 254.895 206.338 254.895 205.575ZM255.647 226.223L262.538 223.435H265.384V273.448H255.611V226.223H255.647Z" fill="#259D9E"/>
<circle cx="185.994" cy="271.679" r="4.57522" fill="#259D9E"/>
</svg>
